X: 1
T: Grand Spy, The
M: 4/4
L: 1/8
R: hornpipe
K: Dmaj
F2 FA GFED|F2 A2 A3 c|B2 BA Bcdc|B2 A2 Bc d2|
F2 FA GFED|F2 A2 A4|B2 A2 BcdA|F2 E2 E4:|
B2 e2 edef|g2 fg e2 Bc|df d2 dBGB|df d2 d4|
B2 e2 edef|g2 fg e2 dc|B2 A2 BcdA|F2 E2 E4:|
